build/images/rivals/Modal/modal_1/orders_was.svg

<svg width="54" height="67" viewBox="0 0 54 67" fill="none" xmlns="http://www.w3.org/2000/svg">
<path d="M50.5069 5.19061H33.3629C32.7576 2.23222 30.1346 0 27 0C23.8654 0 21.2423 2.23222 20.637 5.19061H3.49314C1.56708 5.19061 0 6.75769 0 8.68375V45.7893C0 47.7154 1.56695 49.2825 3.49314 49.2825H19.7801L14.4905 65.0427C14.2614 65.7253 14.6291 66.4645 15.3118 66.6938C15.4494 66.7399 15.5893 66.7618 15.7269 66.7618C16.2718 66.7618 16.7799 66.4175 16.9629 65.8724L22.531 49.2825H31.469L37.0371 65.8724C37.2201 66.4176 37.7282 66.7618 38.2731 66.7618C38.4107 66.7618 38.5506 66.7398 38.6882 66.6938C39.3709 66.4645 39.7386 65.7253 39.5095 65.0427L34.2199 49.2825H50.5069C52.4329 49.2825 54 47.7154 54 45.7893V8.68375C53.9999 6.75756 52.4329 5.19061 50.5069 5.19061ZM27 2.60789C28.686 2.60789 30.1246 3.68677 30.6617 5.19061H23.3384C23.8755 3.68677 25.3141 2.60789 27 2.60789ZM51.392 45.7893C51.392 46.2774 50.9949 46.6746 50.5067 46.6746H47.1007V28.0855C47.1007 27.3655 46.5169 26.7816 45.7968 26.7816C45.0766 26.7816 44.4928 27.3655 44.4928 28.0855V46.6747H40.4815V32.0743C40.4815 31.3543 39.8977 30.7704 39.1775 30.7704C38.4574 30.7704 37.8736 31.3543 37.8736 32.0743V46.6746H34.2116V36.3402C34.2116 35.6201 33.6278 35.0362 32.9077 35.0362C32.1875 35.0362 31.6037 35.6201 31.6037 36.3402V46.6746H28.3037V33.0259C28.3037 32.3059 27.7199 31.722 26.9997 31.722C26.2796 31.722 25.6958 32.3059 25.6958 33.0259V46.6746H21.9095V39.4999C21.9095 38.7798 21.3258 38.1959 20.6056 38.1959C19.8854 38.1959 19.3016 38.7798 19.3016 39.4999V46.6746H16.2738V40.0264C16.2738 39.3064 15.69 38.7225 14.9698 38.7225C14.2496 38.7225 13.6659 39.3064 13.6659 40.0264V46.6746H10.1743V41.5452C10.1743 40.8252 9.59051 40.2413 8.87034 40.2413C8.15018 40.2413 7.5664 40.8252 7.5664 41.5452V46.6746H3.49288C3.00481 46.6746 2.60763 46.2774 2.60763 45.7893V8.68375C2.60763 8.19568 3.00468 7.7985 3.49288 7.7985H21.8091H32.1904H50.5066C50.9947 7.7985 51.3919 8.19568 51.3919 8.68375V45.7893H51.392Z" fill="#333333"/>
<path d="M7.93988 35.7641C7.94158 35.782 7.94497 35.7992 7.94745 35.8168C7.95084 35.8413 7.95384 35.866 7.95866 35.8904C7.96271 35.911 7.96844 35.931 7.97353 35.9512C7.97875 35.9722 7.98344 35.9934 7.9897 36.0141C7.9957 36.034 8.00326 36.0533 8.0103 36.0729C8.0176 36.0935 8.02451 36.1142 8.03286 36.1346C8.04042 36.1527 8.04916 36.17 8.0575 36.1877C8.06728 36.2086 8.07667 36.2298 8.08763 36.2502C8.09649 36.2668 8.10666 36.2827 8.11631 36.2989C8.12844 36.3192 8.13991 36.3398 8.15321 36.3596C8.16482 36.3771 8.17799 36.3934 8.19038 36.4102C8.20316 36.4276 8.21528 36.4452 8.2291 36.462C8.25245 36.4904 8.27735 36.5174 8.30304 36.5438C8.30734 36.5481 8.31086 36.5529 8.31516 36.5572C8.31934 36.5614 8.32403 36.5649 8.3282 36.5689C8.35467 36.5947 8.38192 36.6198 8.41048 36.6433C8.42639 36.6563 8.44308 36.6678 8.45951 36.6799C8.47725 36.6932 8.49459 36.7069 8.51297 36.7193C8.53175 36.7318 8.55118 36.7426 8.57035 36.7541C8.58769 36.7645 8.60477 36.7753 8.62263 36.785C8.64167 36.7952 8.66123 36.8038 8.68066 36.8129C8.69983 36.822 8.71873 36.8315 8.73855 36.8398C8.75694 36.8473 8.77571 36.8534 8.79423 36.8601C8.81588 36.8679 8.83714 36.8761 8.8593 36.8828C8.87743 36.8883 8.89568 36.8922 8.91393 36.8969C8.93688 36.9027 8.95957 36.9091 8.98304 36.9137C9.00338 36.9177 9.02399 36.9201 9.04446 36.9231C9.0661 36.9263 9.08736 36.9302 9.10926 36.9325C9.14408 36.9359 9.17902 36.9372 9.2141 36.9378C9.22192 36.9379 9.22949 36.939 9.23731 36.939L14.87 36.939C15.5901 36.939 16.1739 36.3551 16.1739 35.635C16.1739 34.915 15.5901 34.3311 14.87 34.3311L12.3854 34.3311L23.2118 23.5047L26.054 26.347C26.2985 26.5915 26.6302 26.729 26.976 26.729C27.3218 26.729 27.6536 26.5915 27.8981 26.347L37.3075 16.9375L40.1165 19.7466C40.6257 20.2557 41.4514 20.2557 41.9606 19.7466L46.7189 14.9883C47.2281 14.4791 47.2281 13.6534 46.7189 13.1441C46.4643 12.8896 46.1306 12.7622 45.7969 12.7622C45.4632 12.7622 45.1294 12.8896 44.8749 13.1441L41.0387 16.9804L38.2296 14.1715C37.7204 13.6624 36.8948 13.6624 36.3856 14.1715L26.9762 23.5809L24.134 20.7385C23.8895 20.494 23.5578 20.3566 23.2119 20.3566C22.8661 20.3566 22.5344 20.494 22.2899 20.7385L10.5415 32.4869L10.5415 30.0024C10.5415 29.2824 9.95774 28.6984 9.23757 28.6984C8.5174 28.6984 7.93363 29.2824 7.93363 30.0024L7.93363 35.6343C7.93336 35.6778 7.93558 35.7211 7.93988 35.7641Z" fill="#333333"/>
<path d="M9.23754 15.3694C9.95769 15.3694 10.5415 14.7856 10.5415 14.0655C10.5415 13.3453 9.95769 12.7615 9.23754 12.7615C8.51739 12.7615 7.93359 13.3453 7.93359 14.0655C7.93359 14.7856 8.51739 15.3694 9.23754 15.3694Z" fill="#333333"/>
<path d="M9.23754 20.6857C9.95769 20.6857 10.5415 20.1019 10.5415 19.3817C10.5415 18.6616 9.95769 18.0778 9.23754 18.0778C8.51739 18.0778 7.93359 18.6616 7.93359 19.3817C7.93359 20.1019 8.51739 20.6857 9.23754 20.6857Z" fill="#333333"/>
<path d="M9.23754 26.0019C9.95769 26.0019 10.5415 25.4181 10.5415 24.698C10.5415 23.9778 9.95769 23.394 9.23754 23.394C8.51739 23.394 7.93359 23.9778 7.93359 24.698C7.93359 25.4181 8.51739 26.0019 9.23754 26.0019Z" fill="#333333"/>
</svg>

<svg width="54" height="67" fill="none" xmlns="http://www.w3.org/2000/svg"><path d="M50.507 5.19H33.363C32.758 2.233 30.135 0 27 0a6.505 6.505 0 00-6.363 5.19H3.493A3.497 3.497 0 000 8.685V45.79a3.497 3.497 0 003.493 3.493H19.78l-5.29 15.76a1.304 1.304 0 002.473.83l5.568-16.59h8.938l5.568 16.59a1.304 1.304 0 002.473-.83l-5.29-15.76h16.287A3.497 3.497 0 0054 45.79V8.684a3.497 3.497 0 00-3.493-3.493zM27 2.609a3.893 3.893 0 013.662 2.583h-7.324A3.893 3.893 0 0127 2.608zM51.392 45.79a.886.886 0 01-.885.886H47.1v-18.59a1.304 1.304 0 00-2.608 0v18.59H40.48v-14.6a1.304 1.304 0 00-2.607 0v14.6h-3.662V36.34a1.304 1.304 0 00-2.608 0v10.335h-3.3v-13.65a1.304 1.304 0 00-2.608 0v13.65h-3.787V39.5a1.304 1.304 0 10-2.607 0v7.175h-3.028v-6.649a1.304 1.304 0 00-2.608 0v6.649h-3.492v-5.13a1.304 1.304 0 00-2.608 0v5.13H3.493a.886.886 0 01-.885-.886V8.684c0-.488.397-.885.885-.885h47.014c.488 0 .885.397.885.885v37.105z" fill="#333"/><path d="M7.94 35.764l.007.053c.004.024.007.049.012.073.004.021.01.041.015.061l.016.063.02.059.023.062c.007.018.016.035.024.053l.03.062.03.049.036.06.037.051c.013.018.025.035.04.052a1.1 1.1 0 00.073.082l.012.013.013.012c.027.026.054.05.082.074l.05.037.053.04.057.034.053.031.058.028.058.027.055.02.065.023.055.014.069.017.061.01.065.008c.035.004.07.005.105.006l.023.001h5.633a1.304 1.304 0 000-2.608h-2.485l10.827-10.826 2.842 2.842a1.304 1.304 0 001.844 0l9.41-9.41 2.809 2.81a1.304 1.304 0 001.844 0l4.758-4.759a1.304 1.304 0 00-1.844-1.844l-3.836 3.836-2.81-2.809a1.304 1.304 0 00-1.843 0l-9.41 9.41-2.842-2.843a1.304 1.304 0 00-1.844 0L10.542 32.487v-2.485a1.304 1.304 0 00-2.608 0v5.632c0 .044.002.087.006.13zM9.238 15.37a1.304 1.304 0 100-2.609 1.304 1.304 0 000 2.608zm0 5.316a1.304 1.304 0 100-2.608 1.304 1.304 0 000 2.608zm0 5.316a1.304 1.304 0 100-2.608 1.304 1.304 0 000 2.608z" fill="#333"/></svg>
